svgs/thin/franc-sign.svg

<svg xmlns="http://www.w3.org/2000/svg" viewBox="0 0 320 512"><!--! Font Awesome Pro 6.6.0 by @fontawesome - https://fontawesome.com License - https://fontawesome.com/license (Commercial License) Copyright 2024 Fonticons, Inc. --><path d="M96 32C78.3 32 64 46.3 64 64l0 152 0 120L8 336c-4.4 0-8 3.6-8 8s3.6 8 8 8l56 0 0 120c0 4.4 3.6 8 8 8s8-3.6 8-8l0-120 136 0c4.4 0 8-3.6 8-8s-3.6-8-8-8L80 336l0-112 200 0c4.4 0 8-3.6 8-8s-3.6-8-8-8L80 208 80 64c0-8.8 7.2-16 16-16l216 0c4.4 0 8-3.6 8-8s-3.6-8-8-8L96 32z"/></svg>

<svg xmlns="http://www.w3.org/2000/svg" viewBox="0 0 320 512"><!--! Font Awesome Pro 6.4.0 by @fontawesome - https://fontawesome.com License - https://fontawesome.com/license (Commercial License) Copyright 2023 Fonticons, Inc. --><path d="M96 32C78.3 32 64 46.3 64 64V216 336H8c-4.4 0-8 3.6-8 8s3.6 8 8 8H64V472c0 4.4 3.6 8 8 8s8-3.6 8-8V352H216c4.4 0 8-3.6 8-8s-3.6-8-8-8H80V224H280c4.4 0 8-3.6 8-8s-3.6-8-8-8H80V64c0-8.8 7.2-16 16-16H312c4.4 0 8-3.6 8-8s-3.6-8-8-8H96z"/></svg>
